mimetypes/scalable/text-x-crystal.svg

<?xml version="1.0" standalone="no"?><!-- Generator: Gravit.io --><svg xmlns="http://www.w3.org/2000/svg" xmlns:xlink="http://www.w3.org/1999/xlink" style="isolation:isolate" viewBox="0 0 256 256" width="256" height="256"><switch><g><g id="application-mimetype"><g opacity="0.2"><path d=" M 78.924321 15.500025 C 43.627596 15.500025 39.829708 19.125398 40.002695 54.49353 L 40.002695 127.500014 L 40.002695 200.506441 C 39.829708 235.874573 43.627596 239.500004 78.924321 239.500004 L 177.081083 239.500004 C 212.377805 239.500004 216.002702 235.875035 216.002702 200.506441 L 216.002702 127.500014 L 216.002702 54.49353 C 216.002702 19.124994 212.377805 15.500025 177.081083 15.500025 L 78.924321 15.500025 Z " id="path1163" fill="none" vector-effect="non-scaling-stroke" stroke-width="4" stroke="rgb(0,0,0)" stroke-linejoin="miter" stroke-linecap="butt" stroke-miterlimit="4"/></g><defs><filter id="X0oNBZa8LgBudvChiuaeux9s95Nrok2i" x="-200%" y="-200%" width="400%" height="400%" filterUnits="objectBoundingBox" color-interpolation-filters="sRGB"><feGaussianBlur xmlns="http://www.w3.org/2000/svg" stdDeviation="2.120027"/></filter></defs><g opacity="0.1" filter="url(#X0oNBZa8LgBudvChiuaeux9s95Nrok2i)"><path d=" M 78.924315 16.5 C 43.627592 16.5 39.82971 20.125416 40.002699 55.493531 L 40.002699 128.5 L 40.002699 201.50647 C 39.82971 236.874573 43.627592 240.500001 78.924315 240.500001 L 177.081083 240.500001 C 212.377806 240.500001 215.084425 236.863068 216.002699 201.50647 L 216.002699 128.5 L 216.002699 55.493531 C 216.002699 20.124997 212.377806 16.5 177.081083 16.5 L 78.924315 16.5 Z " id="shadow" fill="rgb(0,0,0)"/></g><defs><filter id="zxqIT3UPh6jvZFYI0lZG9P6qhh5OjT5c" x="-200%" y="-200%" width="400%" height="400%" filterUnits="objectBoundingBox" color-interpolation-filters="sRGB"><feGaussianBlur xmlns="http://www.w3.org/2000/svg" stdDeviation="8.4801079"/></filter></defs><g opacity="0.3" filter="url(#zxqIT3UPh6jvZFYI0lZG9P6qhh5OjT5c)"><linearGradient id="_lgradient_342" x1="-0.0681490711308741" y1="0.03125" x2="0.9537210324437329" y2="1.0531201035746074" gradientTransform="matrix(176.005396,0,0,224,39.997303,16.5)" gradientUnits="userSpaceOnUse"><stop offset="0%" stop-opacity="0.58823532" style="stop-color:rgb(0,0,0)"/><stop offset="88%" stop-opacity="0" style="stop-color:rgb(0,0,0)"/><stop offset="100%" stop-opacity="1" style="stop-color:rgb(0,0,0)"/></linearGradient><path d=" M 78.924315 16.5 C 43.627592 16.5 39.82971 20.125416 40.002699 55.493531 L 40.002699 128.5 L 40.002699 201.50647 C 39.82971 236.874573 43.627592 240.500001 78.924315 240.500001 L 177.081083 240.500001 C 212.377806 240.500001 216.002699 236.875001 216.002699 201.50647 L 216.002699 128.5 L 216.002699 55.493531 C 216.002699 20.124997 212.377806 16.5 177.081083 16.5 L 78.924315 16.5 Z " id="blur" fill="url(#_lgradient_342)"/></g><path d=" M 78.924321 15.500025 C 43.627596 15.500025 39.829708 19.125398 40.002695 54.49353 L 40.002695 127.500014 L 40.002695 200.506441 C 39.829708 235.874573 43.627596 239.500004 78.924321 239.500004 L 177.081083 239.500004 C 212.377805 239.500004 216.002702 235.875035 216.002702 200.506441 L 216.002702 127.500014 L 216.002702 54.49353 C 216.002702 19.124994 212.377805 15.500025 177.081083 15.500025 L 78.924321 15.500025 Z " id="shape" fill="rgb(204,204,204)"/><path d=" M 182.934007 142.581855 L 168.435467 88.221392 C 168.435467 88.061511 168.276132 87.901623 167.957488 87.741742 L 113.627787 73.19232 C 113.468459 73.19232 113.149808 73.19232 112.990486 73.352208 L 73.159325 113.163249 C 73 113.323136 73 113.483018 73 113.802786 L 87.498543 168.163249 C 87.498543 168.32313 87.657865 168.483011 87.976516 168.642905 L 142.306223 183.19232 C 142.465545 183.19232 142.784189 183.19232 142.943524 183.032439 L 182.774684 143.221392 C 182.934007 142.901617 183.093329 142.741736 182.934007 142.581855 Z  M 129.719573 99.892902 L 115.380356 153.294059 C 115.380356 153.453952 115.221033 153.453952 115.061705 153.294059 L 76.186493 114.282436 C 76.027168 114.122555 76.186493 114.122555 76.186493 113.962667 L 129.560251 99.573133 C 129.560251 99.733021 129.719573 99.733021 129.719573 99.892902 Z " fill-rule="evenodd" id="crystal" fill="rgb(0,0,0)"/><g opacity="0.6"><path d=" M 78.924573 15.500025 C 43.627848 15.500025 39.829708 19.126032 40.002695 54.494165 L 40.002695 56.494138 C 39.829708 21.126005 43.627848 17.499998 78.924573 17.499998 L 177.080824 17.499998 C 212.377545 17.499998 216.002702 21.125601 216.002702 56.494138 L 216.002702 54.494165 C 216.002702 19.125571 212.377545 15.500025 177.080824 15.500025 L 78.924573 15.500025 Z " id="highlight" fill="rgb(255,255,255)"/></g><g opacity="0.1"><path d=" M 128.002691 15.500025 L 128.002691 239.500004 L 177.080824 239.500004 C 212.377531 239.500004 215.084421 235.863501 216.002702 200.506787 L 216.002702 127.500014 L 216.002702 54.493184 C 216.002702 19.124648 212.377531 15.500025 177.080824 15.500025 L 128.002691 15.500025 Z " id="right highlight" fill="rgb(255,255,255)"/></g><g opacity="0.2"><path d=" M 40.002695 127.500014 L 40.002695 200.506787 C 39.829708 235.87492 43.627852 239.500004 78.924573 239.500004 L 177.080824 239.500004 C 212.377531 239.500004 215.084421 235.863501 216.002702 200.506787 L 216.002702 127.500014 L 40.002695 127.500014 Z " id="bottom highlight" fill="rgb(255,255,255)"/></g><g opacity="0.2"><path d=" M 156.002703 239.500004 L 216.002702 179.500005 L 216.002702 201.983857 C 215.950394 235.97965 212.200019 239.500004 177.828601 239.500004 L 156.002703 239.500004 Z " id="clip" fill="rgb(255,255,255)"/></g></g></g><foreignObject requiredExtensions="http://ns.gravit.io/"><gravitDesigner:gravitElementRef xmlns:gravitDesigner="http://ns.gravit.io/" xlink:href="#9oYFsXWFsI7CHf2oFo9J8M4KTUPxXAeq"/></foreignObject></switch><gravitDesigner:gravitGraphicSource xmlns:gravitDesigner="http://ns.gravit.io/" id="9oYFsXWFsI7CHf2oFo9J8M4KTUPxXAeq" version="1"><![CDATA[eMKcw41aaXPDo0bCksO9KxvDtMOGfsKZwrbCjMO7cMOERAxAECcBw6IiAcOCw63DmMOAfR/DhEXCkBPDvcOfF8KkKMKJw5TCtHvDlDPCnsK1wqXCoEQVKx8ywqvDsj1kFsO0w7fDhcOfFj8vGjcOF8KfFsO/wr3DuMO5wpfCv18Hw6LCth7CmsKHwpHDhsOtwpN5w4Avw6ouDBY/w7fDrRB+WjR9N0/DuGUBwrvCm0LDkxvDgcOdw4p/wp0nw70wwr/DiMO1wqkcw5TCiWd6wpQCJCo6QGddP8K4WcKjwpbDiWEQwqJ5Cj/Cv8KiwqADXy1/w73DtMOLYiXDiMKlwrbDnTg+w7AKRcOwwoYuwo94wpbDh1nDoyzClcOtacKww6rDtXYKUMK1w4rCu25jw49TLsKuFcKEX2huTsK6w7k9wpTCjsKCw7EbwpQYAcK2bRUgwrjCsQLDj8K3w4NEw54tO3QDw5PDicKGw7fDrH3Du2bDp8OUQcO2FsONwrjDnMOqwpp/JAMwwonClcOow6DDmQzDpcKrw6fDiELDmMKTw4rDgg1zwovDpsOqwoIVwq3Ds8KXaMKuC2PCkFzCnsK/QgXCq8KUwrRGwp7CnMO4w4zCtMKwwprChsOMbcOtDsOcciQzasOrW8OqLcKaw6vDgsK8WF7CoXAZw5PDkgcob8Oiwqt9L8K6YcObb8K9UwLCgMK6TcO1w6xyWA/CrQNbw7bCi1d4wozDhsKvwpYXwqhlwrjDi8K0w6Yhw4DDoWzCssOLw5BUO8K/wqEww7LDpG4xwqUlFcKwKQJew6AiYMK6eXXCtSzDh8K3AMKvA8OJw4MawoPCqAodesOBZUdwwqvDuGlmI1NGHsOiwrERAsKAbCzDu8ONLn/DmMOmwpJfw7vCmgJvS3oEwpDCs8K6RSVHw5HDkcOueHTCuCRfe8O7WzRXw4vCg8OwwrbDjcOXwoVJHsKSw49dw6XCk8KLw4jDqGYETzLCtSXCusKGEHRVP8KXG8Kacz3DjMK/RXNdwpgXw4tff8O9wrRow4PCqMKfw7rDhcOPw5VQFMOXwr/DnMOKT8Oqw7bCksOkw7PCp30bw41vw6AnHCdRCEcwDEAREkbDkE/DgMO8w73CtcOhJwwjQQwkAMKcw4DDgcO5w7vDk8KPBMKGPcKBJAJjGARhMEjDojNsw6XClsOhwo1gIMKIw4HCs1/Dv8Obw7V1wrPDuBl4woLDpsO3woV7Ci8ewrzDkDDCrcO6w7XDs8OQPT3Co8K0KMOUw5fDjy4Yw40cw4diw7nDgy8Xw6fCgF8vI8OjwowSwrlFF37DucO0bMOkw5VtEMK2wo9mw55xw7Ezw7xEXsK/cMOgw7kLw4cuHxTDvsOFZMOow7vDq8K0wrJYw7zCjMO8w6Nlwr7DjAHDvcOPPMOiwq8EanDCjCrDhsOOw6QhWcK5WyAEw4VDwpdiwpUewqpjwrpffMKZbcODKBJmLVnDqMKSKcKHDsOZWkYbT8OcEnUDTSImOnZGw6oEw7oKwrB4ccO4w5siw5TDu8KkdsKkwqhiJcK8w6QBw6BBMMKewptFwrvDrg7Ch8K1w4/CmiXDisKxHGNPMHnCgMK0woTCvcKlFMOKw780aMOxw43DssKSUhTDhcOEWsOLEMOsW3bDlsKFwoPDt8K6JDR+eHbCt8Kxw6HCn8ORSsOBwopTwpYYw4pyOMOubykFwq/DsEgrIcKqw47Dr8KhLsOYb8OZGcO2wqxpwrZ+w4w0w6xkw7tmXjXCp8Omw5BAwogbwqwsTHLCvTfCu0NMw4NvdMKPOsOkLMKew4AtB2sSwpDCoMKpL8O1w7AkwqnCq8OIw5rDlMOAUSVvw5FcXRjCpcKRWmk3woJcF2ZJUcK5w7bCujDDrl4ORsKKZlY4w4bDuj1fLAVHMHtZGsOww6NZw67Dh1s0w48Lc8KzwrxKwqNuw5LDr8Kgw6DDjBXDgTRQwpPClXAoERzDjHrClsOSKcOIw6V7FsOAw4pYwrl5RUNMw75qeQvCsMOWwrDChwBXw6nCvMKWVMOHDsKBUcOlOx/Ch8OafWQyHMKdOFLCiDDDhMO5woXCtsK0WWlwOcK8BnjChTo+wqwxRWzCrFPCssKWa8Kqw5o4Z3EXaGXCrG1jwoY5w6pEMh7DlDc7w7xhwpvDoUHDmFHDuzNcTFYHO8OFbjLDisOlDljCrcO3wrbDncOjwq3DkcOcwqLCuVrDvkTDvsO0wrrDjcOPC8OzwpB8K8Olw5TCqnQ4w7FaCsKdwoZmeSzCsMKow5HDt2o2wpl7wqQMwotbNMOPC8OzwpJ8HxQhw6AJwr1xE8KALsKqwoNiVxHDusOKw7DCjyA6wrMZwocBEMKAMBDCgggQw77DtCMEPCFXwoZjMALCosKzViFvOsOUJW5QH8OvVQjDvMO9VMOowp8pD8O4w7TDoj/CgMKSAMKKwoLDkMKHwpXDp0HDoG4qwqTDt8KRw4bCrsOcPMKpeMOdw43Cqk0YwrHCqMOrccOjLjRFw5jCrcOgFxV6wolrfhvDusO9Y0xeMcK0wqvDq8O4PMOcw47Cl34iYRzCg2HDsiLDqhgOwr5cSy4Fw67DgBU2wp8oMjh0woJYdsK5w6rCr1PDlU/DlMKYwqvDhcOFwpd/VcOFOMOVa1LDu8KgWsONbsKlFMKmw4JiwpvDo8KRPcKMwrtzUMORWsOWfsKHworClcK6SwVHw53DmMOvE8O/w4TDjiFMKcOIcArCq2/CsErCicOpw6A7VMOMwpbDmS1wbmTChVsZIMKfwo3DjMOZE8Kiw43DgcOuCBwJdT3Duy0VM8O2w7BaFS3CisOrBHtNwqBFag4Mw6vDkxh8ZMOWwrFMw4vDn8KhYiBBTMOkwr7CrMKKw5UOWsOvwozDgG7DtsKmw5zDo8K8wqzCqxoKS8Oud8KoGEHDpljCu8OfLU/Dth7Dm8KRS8KqERnCmsOzw6dywo9MTVNDwozDr1DCscKUw7BYw4JFwpckH8Kuwo4cw4xUJgPCny3Dm8KLJwDDo1Y+dMOzw6pZwrTClsOHb8KpWDFww7rDjlvDmVwvLMOLw77CnMKWRjFkwp3DnQvDicK2w5bDtVjDvi0Vw4MrTjfDsU0Mw6slTsKhXlJvwoXDo2rCr8KswpjCmiZcw5nCoMK/Q8OFwqwCTzPDsHAgwqUsw4jCmsKMw7NBD8OQdhFqEsKJXsOEwqXDsCdVwrELa8OvNQzDvsKwwobDvcKnwqXDqcOTN8KlcsO9w4PDnz8vwrrDj8KXw4shCAoiEMKKwpIIShAAQXzDusK8wojCpsO5wpMfwoEnACNAwoQEcBDChMKBwpluw6DDpcKjw5PDp0vCnAAMQsOow7zDp2XDoi8zVHMZwp3Dv8O2w6fDn8Kfw59cw7rCvMKYw4fDqsKrw4UMDsOBKAzDjcKOw53Cpj9dwq/DtcKbFsKvE8OBb8OMwrrDiMOiw6dFe3EXwp13CcK/woglAsOjBATDgsOEwpfDlyrCscKrNcOCwqgLG8KBK0nDtBLCjcKxwrPDkMOmwqVgEFtRw5sFw5XCv8Kiw48gw7nChMKjAArCo8OzGsKRGMKEIsOYw4vDlRzCrWPDrC7CoDLDh8OXMHDCicOpw71JPMOzwoFoC2sgw5zCt8Obwo8qw7Q/NsK7wrFAwpPCuFlqw6bCmUIzRTcydsK+w4tnw6vDoCDDlcKSEEAvCsO9wpFmd0g1w4pZFxLDrsOQGsKyw5rCmsKFHcKjPHRwDVHCgcOGwrRUFh9vdkPDi1vDmsOpRgF6wrokO8OVPQo1w64oW8Kxw47DksODw5DChMOebzXCu8OcMcOED8K6wq8ycmXCscKBOFgwcAzCkTbDg8OTwpNDw6DDrnbDscOxZsK3w4dQwrBwAGwbYsKYU2HCpMKpA8OMccKvw4bCgFrDksKTccOOFx9vdsORbcOEwoV7FsOkEkDDocKxTXPDlsOSdcKYSzbCtsOUHcK2KF4Uw7ojw40uw4HCsCTDmg96DmTDkH7Co8KtdmxHAcKAwp96JxXDnsOHQcK5w7h4wrPDi8K0Dk8tw7s2RcOYWMKxZMOVCsONQQEkwpbDj8K2RcK7w7HCmMOfanbDt8K6wqzDuXYlLgEnSxvCozjDrCUhwqXDp8OLcXPDscKcesOjw6LDo8ONbsOkNcK4wqVRAyQ2w5MeFMOGMSTDnMKVwpBteE86VWLCvVvDvAnCm8OdwrnDiGwuJ07Dv3ZdCQHDiMKnw5vDq8Ktw7lsKgjCr8Kiw67CuG4dF8KZdsKbFVZDw7bCgcOKCcK2dTLCncOuHsKaw48SYsOzwpTDrVofGFkKwpXDt8OowrhEAAQPwpLDisKWesKtM19rVsK/LsKbesKowoLCmzhcfl3DlmoxwqvDocOfwq4qeBnCuQrDoMKzbnzCvgnDh8OnwotyXMOkw7jCl1nClsKlKsOTwrItU8OJw4Jfwq9Tf8K4w75EdmfClVRibsOAw7wdYMKowrUdCsORw4HChTnCnD9SwodxwoVcJz1jw6sBwpNpwq3DqcKXw4QFYU7CicOPwotTVMOtwrRYwqjDjsOEAyjChcOXZsOYKCIbw6YyQRs7w6Z4w5pDwo5hEGDCvsK3BgfCvU7DosKvP8KvCMK1wqLCnMOfQHXDgcKbwodcw7cdwqgoRTB8w4JIw44xw6Q1LW3CjXXDhBopL1jDvsKxAcO2w6HDpsOeU1LCncOdw5LCgTtQw7I8w4tbw41KwrDDvwg6axDDjsO6K0c7w4lJSsOSZyQPwrZFahd7A8KnJcOpw57Dk0DCt8OuEMKuwqDChMOLJXNtwprCvwPClX1ewqxjwqzDjnXCtkc6Gw/DucOtw4DCpmPCmsOYGyYbHMOpw45Twp9IwpN3wqBqTCJaw7rCl2PDvxh+PMOaHGdKScKkYn4kwp8mC8KdAjcSw5bDhRTCmcOrwq3DjsOeecK6IURYO0Biw78Ww751KMONwq13wqDCjCzDq8KbahnCkFAmbMKpaMKnYCrCnwUOw50NHDrDhhZ6w6fDqTPDgsKUw53CgXIOJ2oFfMKKH0HCg8KTwrpGw4kmc1oDwqPDiTAww711IsOxaMKyPETDsHobwod3wp5eEcO6w7M6fgPCrTRDw5LDusOkL8OvQDE1KsKpwqYGw5gtYnUew4fCi0HCo8OtV3Jiw61bbsK9QcOZO0/DizbCnMOdOhR3wqAYwoDCkVo7BMOuwrvClDIcwrtWw4h2XMOLZH7Ctnl3w6bDoHnDh8Kbw5TCkVliNsKBw515w6rDscOWHcOCw7PDrm/DknkIPsK8A8OFasK8w6XDhCDChsKwwrHDmitSfQxTe2DCo13DgSvCvsKyDcOcO0/CvU56D8KqIcOqTFPCuikfQS3DkcKYcMOLYWPCsyrCrDMbwrkgw4hKQ8KDw6LDgsOeZXpldcOnw6kzw5E3w5DCjcKmw5diw6jCqsK3wp9vwoLDu8O5TnE/XyXDt8OzRXMvb8KhJxAkUMKQJFDCkiABeMKueMKvwqI7D0MowonDgjjCiiMIDGPDqMKnH1HDognCmsKVDyYBDCEQYC57PsONBcOhEwLCksOoXG7CgQACwoHDkAXDuCLCs0JwFcKpw5XDmsOlRsORw6jDisKsS8KQNWPCjcOBAMKuGXE8CsKwwqrDoU15w7XDvlkcwq/Ds8K9wpgwKsOFEsKbwpZaBsKGw6ckw6die8OowpHDsVzDisKDwrY5w45bw75lFsODw6/DkcOAwp/CoMOTwqQlRDc9aiDCl8OOwrjClG7DilXCvsOxGlfDiEB6w47DnMK9VMKBwp7CpMOlSnPCt2NXwoQDbTwjXHcsGTbCmVbCjGPDvigCDcK7w4Rww4dpOW7DosODGsOeEjt0WS3DjcOdLDIgRyzDu8K7HcK7IsO0wpXCkMK/wolAwozCul8DVRMowpTDiMO9JMOgwqDCqcOWw5LCmXc4woVmw4jDnsKkdcOFw4Zyw6fDjlN6DcK9B8O1fcKHw5QOVsOadw/CoHbDgMOuwp0gScK4wrgqw5PCvcOJwoTDhQjCsXE6UMK9w4YWwpx/wr5nQVXCkFrDqsKJw48Id8Kgw5nDuA7CtBhJcsONw459w6jClsKwwoNhNcKjFXXCjxzCtwxrdA0kw5vDtxp4QXgEwo1yd8OSUhF9wrdRNQTChi7DiGZHwqbDkXvClQzCp17DiVIGXTXCiMOTVSbCncOfeXpFeMObwqg/Dws8w5N3w5bDrsOKMzsqXMOLB0LDhlXCpcKIw7ESw4LCvXTCssOVw70/wrAAD8Oiw4zDjMOhwrpWU8KowoPDmcOVEsKwQlVdwqrChAXCtAwAX1jDsMOrbxVRwr93JC9FwpTDn8KewrrDni1+wo8yw6rDncOpfVPCkBsXYjBBRGLCscK1woDDpWbCm8KsESwgasKzLUZkeCjCoMOMZMOIw6XCiMOpw63DiAHCkTRQGFkFXcOSP1gbOsOvw44yw7jCscOTw7trHxLDrsKEw7TCrUY+w7HCtsKEccOwwpnDghXClyTCj8KqwrFrw4XCplvCkRBqw7XDjko1fsKrf0nDqh3Dm8KTUcOfT2PCnlVcw4MZGMKeaGsCw4AkYBcbL8Odw5hHw7rCl8KwLjbCmsK4wpYVOMKGwo8tAXhiLsOTcEvDiUTDoMOuwpFDw78dw71LJVfChBZGJ8Kywo9BwoROIBA0d8KWeSjCnMKdb3fDrTHDv8KOw75FwoB3ElBMwozCv8Ozw4rCosKqfcKlwqE6LsKTw7ktclbCj1Z4w7pmw78yPMKsccOmBAHDl8Kjw5Jyw5Ngw6BGw5kvYcOHw5nCixHClcK5U0XCnGLDtMKPw6sUw4bDtMOlw4jDpDXDoXs3wr4/w5PDuT3CnsKOQSjDusOpw7bDuk/Dtw/Dn0x/SjLDnh8qwqwAeXTClsK1ekzDtsO7w5bDtsOXCCDCgzl/AELDhinCqsO+BMOfEsOmSH7DtVABwrvDrzYbJxcKw43DjGIIBCDCtGIxTgrCssO2JBNmZQBow77DksKGXxnDoWnDrw4Vw7xtHMKsw54aw5fClRTCr2VEHDjCuwxtXG8kUWJrw5PCrsKyUUnCssOewronwpcxwrLCr1DDlwAdXsK9C3A6wpM7wqwXwpbCg2tvw4AKw5rCthPDlMOIwr4KLksJA8KSA3bDs8OqGsOgwovDpQXDqsOsw43DpGoewqDDpnrDhsOKw6jCrFzDhVHCscOpw4xRHMKAw5R1KX3ClR8cwpZVw4HCl0NlaiZXcwd1ZUTDtxDDoMKxw6ZOMG3DhcOmRjvDmV52PMKIbS9QZ8OOa8KWLMKsLcO9e3LCpcOmW8KAw49Nw77Dg8KywqtIJsKgZg/CocOtw4lQIlNxw7jCgh7Dkk3DkRsKIMO3McOyw5DDpB/Dn8KWw70aw6BjwpPDny0lWy3DpMOGO2jDh8K6wpkMwr5DagbDi8OWVcOcS8ObYMKbw5zCvMK6BsO4Z2nDssKTNE7CisO5w5XDn8KTFsO7w51Jw7tPHikBwrfCh8OZw7Ntw6N6eAvCksO/w5YjwqXDhER4RmLCjz7CsW7DhcKMTXJ7w6p3K8KZU3FYwqYyP3nDkMKGwr7Dq8OVwrUmHVzDgEkPCMOJWQ3Ck8KeLcKbwq/DtsOwSXQKw6ljw5rCgHYCw7cuHWIQIsOOHjggw45Owq/CgmXDh8O6wqItw7jDtsOEdMO7w4HCpGnDosKaRlfCu8OHwpvCkDDCuBIrDsOhSsKVwpXCugltWzDDvcKJw5Rhw6vCtB8Aa8K7f0vCv0c7wolWWzo5NgMrVnUdZScGKcKYwpImAFfDgHpxw7Vyw7gGHcK/esOzAsOub14WPMKyU1VmKSLCksOiaMOSJ8K+w5zCqQESHBPCoBkpGMK/ZcKyOkzCqRZHw588fGvDqX7Di8KcccK8wozCum3DiGTCkz7DsMK9VhN0HsKkajZhw4TCm10Gw53Ds8KySMO2woIOKMOww5bDpsODw7EAwqPCsMK4QcO8VsOcwp7DtsOrw7rCrMOxw4Y9L8Kbb8Ozw7LCqGVoQgQ6fizDgsKNwolBZ8Kjw69hwrjDoyHDncKew5bCimDDnsKiwrkuw4zCn8KFwpfDrcKFwpPDv8O1VXbDvh7Cj3rDv0h2bsKjFjVaRsOnZA7DpcKRw5UZJsKWFAMzakkxwq4SLR8Lw5fClsO2RMKEB8KjwoNbKMKawqwRw6hBwo0UwoBnRT4bVxsmw7rCjsOCw7XDscOgwr0OWQ/Dn1d4BkPCnlzDg3nDoyfCgMK3GjPDkw54wqbCisKKwrvDgsO1woEaw71Gw4XCjcOMCMKFfcKyFcOowpI6wodrwrcxw7fDgMKUwoHCnhd6w4BDw6HDmsK+UcOjem99LFxXwqonD8KNwpFXw5oRBcOiwogvw4IIwqRhMD8Yw5XDusOILcOZW15Ow4rCu8OCw7Urw5xndWzDgsKWwqHCj8KXUsOTwprCuQ8Yw4vDk8KWDsOZwpXDjyjCksKKQcOfw4HDvRIyaMKVJzjDiMOZw4XCkcKIZU3CtcKVJMKPH8OOZMK6wopPw4jDiz/DkXzChMO7DFNAwo1XTcOKwpkJw7FIAsK3w5wpEmwSwq/CocKeKMOJCcO+w4NZw6bDlX1fwpdfwqfDmcOvX8K5w77Dv8OSbHnCrGTCoybCkT5IwqHDiGAwwq9swowaD8KWw4pBDsOOw6s5JcOuacKGWjEbRhIgwq7Cp2wAw5haGMOowpNLw5fDmjkNwrxDaG8+RsKzwqXCtcONw58lw6YpETdqBsKtHRbCgcKkwpHCtcKOw4vCgsKwwrdnwq46H8OSEFbCusK3w5RJSSt9wrPDgwTDgy0cwqMPwpzDiVTDszY7TgTCrMOPfXgnw7Bww4wdw4s3wrvCg8Kiw55lwq/CgmrDk8KuOcKdwoBVYlbCvcOaw5rCiMKYw6vCvcKVwoJ9HsKbHMO5w5LDgcOBwoHCk2nCo8K3ecONXsKnQsOwd8Kud8OaUsOFw5hcw7FOc0t7RMK8VD05bjnDisOaKsKGwpYYXcK/wpbCvmjDtMOGwqk/OMKhw70ibcO+w5Akw4ZvScKMPD/ChQfDkX8rwofDi0MJw5TCsMK0wrMGbcOUw7ZRasO5VMK8w4LCmcK5wpw7FwrCtw4fcljDgsODw4wdw71UT3wdQRVQRkjDqcOEOgcjbHvCisObwrfDl8OWw7E/wrvDvG7DkxTCqcOvw7ZpXcO9WMKmZcOYwp/CnsKfwqDCvcK4wpgAE2tuQcKOwpEoVxApblXCrzfDtSrCjMK7ZBTDnMODPsK5wrrDuMODJcOwwonCtwTCiQ8yJh1UTMKTAgDDm8OmcSMOcMKqLjvDu3LCl8KZFxtCwrFLDj7Dv8KuL8KPw6AvGcOmw7nDuVc2bh7Cv8Kmw4TCq8KvwqobwofDvwUuwr7DvB/CkMKNdMOE]]></gravitDesigner:gravitGraphicSource></svg>

<svg xmlns="http://www.w3.org/2000/svg" xmlns:xlink="http://www.w3.org/1999/xlink" style="isolation:isolate" width="256" height="256"><switch><g><path d="M78.924 15.5c-35.296 0-39.094 3.625-38.921 38.994v146.012c-.173 35.369 3.625 38.994 38.921 38.994h98.157c35.297 0 38.922-3.625 38.922-38.994V54.494c0-35.369-3.625-38.994-38.922-38.994H78.924z" fill="none" vector-effect="non-scaling-stroke" stroke-width="4" stroke="#000" opacity=".2"/><defs><filter id="a" x="-200%" y="-200%" width="400%" height="400%" filterUnits="objectBoundingBox" color-interpolation-filters="sRGB"><feGaussianBlur xmlns="http://www.w3.org/2000/svg" stdDeviation="2.12"/></filter></defs><path d="M78.924 16.5c-35.296 0-39.094 3.625-38.921 38.994v146.012c-.173 35.369 3.625 38.994 38.921 38.994h98.157c35.297 0 38.003-3.637 38.922-38.994V55.494c0-35.369-3.625-38.994-38.922-38.994H78.924z" opacity=".1" filter="url(#a)"/><defs><filter id="b" x="-200%" y="-200%" width="400%" height="400%" filterUnits="objectBoundingBox" color-interpolation-filters="sRGB"><feGaussianBlur xmlns="http://www.w3.org/2000/svg" stdDeviation="8.48"/></filter></defs><g opacity=".3" filter="url(#b)"><linearGradient id="c" x1="-.068" y1=".031" x2=".954" y2="1.053" gradientTransform="matrix(176.0054 0 0 224 39.997 16.5)" gradientUnits="userSpaceOnUse"><stop offset="0%" stop-opacity=".588"/><stop offset="88%" stop-opacity="0"/><stop offset="100%"/></linearGradient><path d="M78.924 16.5c-35.296 0-39.094 3.625-38.921 38.994v146.012c-.173 35.369 3.625 38.994 38.921 38.994h98.157c35.297 0 38.922-3.625 38.922-38.994V55.494c0-35.369-3.625-38.994-38.922-38.994H78.924z" fill="url(#c)"/></g><path d="M78.924 15.5c-35.296 0-39.094 3.625-38.921 38.994v146.012c-.173 35.369 3.625 38.994 38.921 38.994h98.157c35.297 0 38.922-3.625 38.922-38.994V54.494c0-35.369-3.625-38.994-38.922-38.994H78.924z" fill="#CCC"/><path d="M182.934 142.582l-14.499-54.36c0-.16-.159-.32-.478-.48l-54.33-14.55c-.159 0-.477 0-.637.16l-39.83 39.811c-.16.16-.16.32-.16.64l14.499 54.36c0 .16.159.32.478.48l54.33 14.55c.159 0 .477 0 .637-.16l39.83-39.812c.16-.32.32-.48.16-.64zm-53.214-42.69l-14.34 53.402c0 .16-.159.16-.318 0l-38.876-39.012c-.159-.16 0-.16 0-.32l53.374-14.389c0 .16.16.16.16.32z" fill-rule="evenodd"/><path d="M78.925 15.5c-35.297 0-39.095 3.626-38.922 38.994v2C39.83 21.126 43.628 17.5 78.925 17.5h98.156c35.297 0 38.922 3.626 38.922 38.994v-2c0-35.368-3.625-38.994-38.922-38.994H78.925z" fill="#FFF" opacity=".6"/><path d="M128.003 15.5v224h49.078c35.297 0 38.003-3.636 38.922-38.993V54.493c0-35.368-3.625-38.993-38.922-38.993h-49.078z" fill="#FFF" opacity=".1"/><path d="M40.003 127.5v73.007c-.173 35.368 3.625 38.993 38.922 38.993h98.156c35.297 0 38.003-3.636 38.922-38.993V127.5h-176z" fill="#FFF" opacity=".2"/><path d="M156.003 239.5l60-60v22.484c-.053 33.996-3.803 37.516-38.174 37.516h-21.826z" fill="#FFF" opacity=".2"/></g><foreignObject requiredExtensions="http://ns.gravit.io/"> </foreignObject></switch> </svg>
